!!!COM: Mozart, Wolfgang Amadeus
!!!OTL: Musikalische Würfelspiele, Kontre-Tänze
!!!SCA: K<sup>6</sup> Anh. C30.01 (K<sup>3</sup> Anh. 294d)
**kern	**kern
*staff2	*staff2
*clefF4	*clefG2
*M2/4	*M2/4
*MM110	*MM110
*>[A,A1,A,A2,B]	*>[A,A1,A,A2,B]
*>norep[A,A2,B]	*>norep[A,A2,B]
*>A	*>A
=165	=165
4C	8cc
.	16ee
.	16cc
4r	8g
.	8g
=152	=152
4C	8gg
.	16ccc
.	16gg
4r	8ee
.	8cc
=57	=57
8G	8ff
16GG	8ff
16AA	.
16BB	8dd
16C	.
16D	8dd
16BB	.
=158	=158
4C	16cc
.	16dd
.	16ee
.	16ff
4CC	16gg
.	16ee
.	16dd
.	16cc
=111	=111
4D	8d
.	16f#
.	16a
4D	8dd
.	8ff#
=140	=140
16D	8gg
16B	.
16G	4dd
16B	.
16D	.
16B	.
16G	8b
16B	.
=137	=137
4C	8ee
.	8ccc
4D	16bb
.	16aa
.	16gg
.	16ff#
=44	=44
*>A1	*>A1
4GG	4g 4b 4gg
16G	4r
16F	.
16E	.
16D	.
=44:|!	=44:|!
*>A2	*>A2
4GG	4g 4b 4gg
16GG	4r
16AA	.
16BB	.
16C#	.
=66||	=66||
*>B	*>B
4D	8ff#
.	16ff#
.	16aa
4D	8ddd
.	16aa
.	16ff#
=133	=133
16BB	8dd
16D	.
16G	4gg
16D	.
16BB	.
16D	.
16G	8bb
16D	.
=138	=138
16C	8gg
16E	.
16G	4ee
16E	.
16C	.
16E	.
16G	8cc
16E	.
=9	=9
4GG	8dd
.	8b
16G	4g
16F	.
16E	.
16D	.
=42	=42
4C	8cc
.	16cc
.	16ee
4r	8gg
.	16gg
.	16ee
=32	=32
4C	8ccc
.	8gg
4r	8ee
.	8cc
=2	=2
4GG	8dd
.	8ff
4GG	8b
.	8dd
=74	=74
4C	4cc
4CC	4c
==	==
*-	*-
